Numix-Light/16/status/indicator-keyboard-Lt-4.svg

<?xml version="1.0" encoding="UTF-8" standalone="no"?>
<svg
   xmlns:dc="http://purl.org/dc/elements/1.1/"
   xmlns:cc="http://creativecommons.org/ns#"
   xmlns:rdf="http://www.w3.org/1999/02/22-rdf-syntax-ns#"
   xmlns:svg="http://www.w3.org/2000/svg"
   xmlns="http://www.w3.org/2000/svg"
   xmlns:sodipodi="http://sodipodi.sourceforge.net/DTD/sodipodi-0.dtd"
   xmlns:inkscape="http://www.inkscape.org/namespaces/inkscape"
   viewBox="0 0 16 16"
   id="svg2"
   version="1.1"
   inkscape:version="0.91 r13725"
   sodipodi:docname="indicator-keyboard-Lt-4.svg">
  <metadata
     id="metadata14">
    <rdf:RDF>
      <cc:Work
         rdf:about="">
        <dc:format>image/svg+xml</dc:format>
        <dc:type
           rdf:resource="http://purl.org/dc/dcmitype/StillImage" />
      </cc:Work>
    </rdf:RDF>
  </metadata>
  <defs
     id="defs12" />
  <sodipodi:namedview
     pagecolor="#ffffff"
     bordercolor="#666666"
     borderopacity="1"
     objecttolerance="10"
     gridtolerance="10"
     guidetolerance="10"
     inkscape:pageopacity="0"
     inkscape:pageshadow="2"
     inkscape:window-width="640"
     inkscape:window-height="480"
     id="namedview10"
     showgrid="false"
     inkscape:zoom="14.75"
     inkscape:cx="8"
     inkscape:cy="8"
     inkscape:window-x="65"
     inkscape:window-y="24"
     inkscape:window-maximized="0"
     inkscape:current-layer="svg2" />
  <path
     style="fill:#353535;fill-opacity:1"
     d="M 1.5996094 0 C 0.71320937 2.9605947e-16 0 0.71320937 0 1.5996094 L 0 14.400391 C 2.9605947e-16 15.286791 0.71320937 16 1.5996094 16 L 14.400391 16 C 15.286791 16 16 15.286791 16 14.400391 L 16 1.5996094 C 16 0.71320937 15.286791 0 14.400391 0 L 1.5996094 0 z M 2.9023438 4.859375 L 3.5136719 4.859375 L 3.5136719 10.564453 L 6.4492188 10.564453 L 6.4492188 11.095703 L 2.9023438 11.095703 L 2.9023438 4.859375 z M 7.9335938 4.9667969 L 7.9335938 6.4433594 L 9.7871094 6.4433594 L 9.7871094 6.9375 L 7.9335938 6.9375 L 7.9335938 9.4121094 C 7.9335938 9.6761094 7.9540938 9.8925467 7.9960938 10.060547 C 8.0440937 10.222547 8.1093594 10.349453 8.1933594 10.439453 C 8.2773594 10.529453 8.38 10.589141 8.5 10.619141 C 8.62 10.649141 8.7524844 10.664063 8.8964844 10.664062 C 9.1424844 10.664062 9.3402344 10.636031 9.4902344 10.582031 C 9.6402344 10.522031 9.7577969 10.469875 9.8417969 10.421875 L 9.984375 10.90625 C 9.900375 10.96025 9.7549219 11.023703 9.5449219 11.095703 C 9.3349219 11.161703 9.105375 11.195312 8.859375 11.195312 C 8.571375 11.195312 8.3288594 11.159891 8.1308594 11.087891 C 7.9388594 11.009891 7.7840625 10.894141 7.6640625 10.744141 C 7.5500625 10.588141 7.4679219 10.397922 7.4199219 10.169922 C 7.3719219 9.9419217 7.3476563 9.671375 7.3476562 9.359375 L 7.3476562 5.0742188 L 7.9335938 4.9667969 z M 12.197266 8.8417969 L 12.59375 8.8417969 L 12.59375 11.486328 L 13.097656 11.486328 L 13.097656 11.796875 L 12.59375 11.796875 L 12.59375 12.896484 L 12.220703 12.896484 L 12.220703 11.796875 L 10.382812 11.796875 L 10.382812 11.5625 C 10.453012 11.3753 10.550981 11.163687 10.675781 10.929688 C 10.804481 10.695688 10.949475 10.456637 11.109375 10.210938 C 11.269275 9.9652374 11.441706 9.7261874 11.628906 9.4921875 C 11.816106 9.2542875 12.006166 9.0367969 12.197266 8.8417969 z M 12.220703 9.2695312 C 12.084203 9.4099312 11.945087 9.5706063 11.804688 9.7539062 C 11.664288 9.9372063 11.529091 10.129225 11.400391 10.328125 C 11.275591 10.523125 11.159981 10.719069 11.050781 10.917969 C 10.941581 11.116869 10.849491 11.306928 10.775391 11.486328 L 12.220703 11.486328 L 12.220703 9.2695312 z "
     id="path4" />
</svg>

<svg xmlns="http://www.w3.org/2000/svg" viewBox="0 0 16 16">
 <path d="m 1.6 0 c -0.886 0 -1.6 0.713 -1.6 1.6 l 0 12.801 c 0 0.886 0.713 1.6 1.6 1.6 l 12.801 0 c 0.886 0 1.6 -0.713 1.6 -1.6 l 0 -12.801 c 0 -0.886 -0.713 -1.6 -1.6 -1.6 l -12.801 0 z m 1.303 4.859 l 0.611 0 l 0 5.705 l 2.936 0 l 0 0.531 l -3.547 0 l 0 -6.236 z m 5.03 0.107 l 0 1.477 l 1.854 0 l 0 0.494 l -1.854 0 l 0 2.475 c 0 0.264 0.021 0.48 0.063 0.648 c 0.048 0.162 0.113 0.289 0.197 0.379 c 0.084 0.09 0.187 0.15 0.307 0.18 c 0.12 0.03 0.252 0.045 0.396 0.045 c 0.246 0 0.444 -0.028 0.594 -0.082 c 0.15 -0.06 0.268 -0.112 0.352 -0.16 l 0.143 0.484 c -0.084 0.054 -0.229 0.117 -0.439 0.189 c -0.21 0.066 -0.44 0.1 -0.686 0.1 c -0.288 0 -0.531 -0.035 -0.729 -0.107 c -0.192 -0.078 -0.347 -0.194 -0.467 -0.344 c -0.114 -0.156 -0.196 -0.346 -0.244 -0.574 c -0.048 -0.228 -0.072 -0.499 -0.072 -0.811 l 0 -4.285 l 0.586 -0.107 z m 4.264 3.875 l 0.396 0 l 0 2.645 l 0.504 0 l 0 0.311 l -0.504 0 l 0 1.1 l -0.373 0 l 0 -1.1 l -1.838 0 l 0 -0.234 c 0.07 -0.187 0.168 -0.399 0.293 -0.633 c 0.129 -0.234 0.274 -0.473 0.434 -0.719 c 0.16 -0.246 0.332 -0.485 0.52 -0.719 c 0.187 -0.238 0.377 -0.455 0.568 -0.65 z m 0.023 0.428 c -0.136 0.14 -0.276 0.301 -0.416 0.484 c -0.14 0.183 -0.276 0.375 -0.404 0.574 c -0.125 0.195 -0.24 0.391 -0.35 0.59 c -0.109 0.199 -0.201 0.389 -0.275 0.568 l 1.445 0 l 0 -2.217 z" style="fill:#353535;fill-opacity:1"/>
</svg>
